Obsidian-SemiLight/actions/16s/reverse.svg

<svg viewBox="0 0 16 16" xmlns="http://www.w3.org/2000/svg"><path d="m5 2v1.9394531 8.1523439l-2.28125-2.2460939-.71875.7089849 3.28125 3.230468.21875.214844.21875-.214844 3.28125-3.230468-.71875-.7089849-2.28125 2.2460939v-8.1523439-1.9394531zm5.5 0-.21875.2148438-3.28125 3.2304687.71875.7089844 2.28125-2.2460938v8.1523439 1.939453h1v-1.939453-8.1523439l2.28125 2.2460938.71875-.7089844-3.28125-3.2304687z" fill="#4d4d4d"/></svg>

<svg xmlns="http://www.w3.org/2000/svg" viewBox="0 0 16 16">
  <defs id="defs3051">
    <style type="text/css" id="current-color-scheme">
      .ColorScheme-Text {
        color:#4d4d4d;
      }
      </style>
  </defs>
 <path style="fill:currentColor;fill-opacity:1;stroke:none" 
     d="M 5 2 L 5 3.9394531 L 5 12.091797 L 2.71875 9.8457031 L 2 10.554688 L 5.28125 13.785156 L 5.5 14 L 5.71875 13.785156 L 9 10.554688 L 8.28125 9.8457031 L 6 12.091797 L 6 3.9394531 L 6 2 L 5 2 z M 10.5 2 L 10.28125 2.2148438 L 7 5.4453125 L 7.71875 6.1542969 L 10 3.9082031 L 10 12.060547 L 10 14 L 11 14 L 11 12.060547 L 11 3.9082031 L 13.28125 6.1542969 L 14 5.4453125 L 10.71875 2.2148438 L 10.5 2 z "
     class="ColorScheme-Text"
     />
</svg>
